libs/islamic-website/markets-page/src/assets/images/coin-logos/atom.svg

<svg fill="none" height="40" viewBox="0 0 40 40" width="40" xmlns="http://www.w3.org/2000/svg"><rect fill="#2e3148" height="38" rx="19" width="38" x="1" y="1"/><rect height="38" rx="19" stroke="#181e25" stroke-width="2" width="38" x="1" y="1"/><g fill="#fff"><path d="m20.0253 7.01367c-1.606 0-2.9081 5.82483-2.9081 13.00893 0 7.184 1.3021 13.0089 2.9081 13.0089 1.6047 0 2.9068-5.8249 2.9068-13.0089 0-7.1841-1.3021-13.00893-2.9068-13.00893zm.2009 25.28243c-.1836.2455-.3683.062-.3683.062-.7392-.8582-1.1087-2.4493-1.1087-2.4493-1.2935-4.1631-.9859-13.1006-.9859-13.1006.6077-7.09478 1.7138-8.77143 2.0896-9.14346.0385-.03816.0892-.06146.1433-.06577.054-.00431.1078.01064.1519.0422.5456.38816 1.0044 2.00528 1.0044 2.00528 1.3518 5.02005 1.229 9.73245 1.229 9.73245.1228 4.1024-.6771 8.6933-.6771 8.6933-.6163 3.4897-1.4782 4.2239-1.4782 4.2239z"/><path d="m31.3083 13.5493c-.7998-1.3939-6.4982.3757-12.7323 3.951s-10.63159 7.602-9.83419 8.9959c.79988 1.3939 6.49949-.3758 12.73359-3.9511 6.2341-3.5752 10.6328-7.6032 9.8342-8.9958zm-21.82985 12.7547c-.30507-.0372-.23563-.2902-.23563-.2902.37452-1.0665 1.56998-2.1802 1.56998-2.1802 2.9676-3.1933 10.8747-7.3737 10.8747-7.3737 6.4561-3.0036 8.4613-2.8771 8.9698-2.7382.0525.0144.0982.047.1288.092.0307.0449.0444.0994.0386.1535-.062.666-1.2401 1.8689-1.2401 1.8689-3.6782 3.672-7.8277 5.9129-7.8277 5.9129-3.4971 2.1479-7.8785 3.7365-7.8785 3.7365-3.3334 1.2004-4.39995.8185-4.39995.8185z"/><path d="m31.2768 26.5419c.8061-1.3889-3.5802-5.4354-9.7945-9.038-6.213-3.6013-11.91012-5.3921-12.71496-4.0006-.80608 1.3926 3.58146 5.4354 9.79696 9.038 6.2168 3.6013 11.9077 5.392 12.7125 4.0006zm-21.97497-12.5017c-.12029-.2827.13146-.3509.13146-.3509 1.11241-.2108 2.67491.2691 2.67491.2691 4.2499.9673 11.8283 5.7145 11.8283 5.7145 5.8348 4.0825 6.7302 5.8819 6.8641 6.3916.0136.0523.0082.1078-.0152.1566-.0233.0488-.0632.0877-.1125.11-.6077.279-2.2384-.1364-2.2384-.1364-5.0225-1.3468-9.0393-3.8134-9.0393-3.8134-3.6088-1.947-7.1778-4.9419-7.1778-4.9419-2.71219-2.2843-2.91433-3.3979-2.91433-3.3979l-.00248-.0013z"/><path d="m19.9913 21.5218c.8451 0 1.5303-.6851 1.5303-1.5303s-.6852-1.5303-1.5303-1.5303c-.8452 0-1.5304.6851-1.5304 1.5303s.6852 1.5303 1.5304 1.5303z"/><path d="m26.2714 15.3548c.6849 0 1.2401-.5553 1.2401-1.2402s-.5552-1.2401-1.2401-1.2401-1.2402.5552-1.2402 1.2401.5553 1.2402 1.2402 1.2402z"/><path d="m11.7011 18.4773c.6849 0 1.2401-.5552 1.2401-1.2401s-.5552-1.2401-1.2401-1.2401-1.2402.5552-1.2402 1.2401.5553 1.2401 1.2402 1.2401z"/><path d="m18.1854 29.74c.6849 0 1.2402-.5552 1.2402-1.2401s-.5553-1.2401-1.2402-1.2401-1.2401.5552-1.2401 1.2401.5552 1.2401 1.2401 1.2401z"/></g></svg>

<svg width="40" height="40" viewBox="0 0 40 40" fill="none" xmlns="http://www.w3.org/2000/svg">
<rect x="1" y="1" width="38" height="38" rx="19" fill="#2E3148"/>
<rect x="1" y="1" width="38" height="38" rx="19" stroke="#181E25" stroke-width="2"/>
<path d="M20.0253 7.01367C18.4193 7.01367 17.1172 12.8385 17.1172 20.0226C17.1172 27.2066 18.4193 33.0315 20.0253 33.0315C21.63 33.0315 22.9321 27.2066 22.9321 20.0226C22.9321 12.8385 21.63 7.01367 20.0253 7.01367ZM20.2262 32.2961C20.0426 32.5416 19.8579 32.3581 19.8579 32.3581C19.1187 31.4999 18.7492 29.9088 18.7492 29.9088C17.4557 25.7457 17.7633 16.8082 17.7633 16.8082C18.371 9.71342 19.4771 8.03677 19.8529 7.66474C19.8914 7.62658 19.9421 7.60328 19.9962 7.59897C20.0502 7.59466 20.104 7.60961 20.1481 7.64117C20.6937 8.02933 21.1525 9.64645 21.1525 9.64645C22.5043 14.6665 22.3815 19.3789 22.3815 19.3789C22.5043 23.4813 21.7044 28.0722 21.7044 28.0722C21.0881 31.5619 20.2262 32.2961 20.2262 32.2961Z" fill="white"/>
<path d="M31.3083 13.5493C30.5085 12.1554 24.8101 13.925 18.576 17.5003C12.3419 21.0756 7.94441 25.1023 8.74181 26.4962C9.54169 27.8901 15.2413 26.1204 21.4754 22.5451C27.7095 18.9699 32.1082 14.9419 31.3096 13.5493H31.3083ZM9.47845 26.304C9.17338 26.2668 9.24282 26.0138 9.24282 26.0138C9.61734 24.9473 10.8128 23.8336 10.8128 23.8336C13.7804 20.6403 21.6875 16.4599 21.6875 16.4599C28.1436 13.4563 30.1488 13.5828 30.6573 13.7217C30.7098 13.7361 30.7555 13.7687 30.7861 13.8137C30.8168 13.8586 30.8305 13.9131 30.8247 13.9672C30.7627 14.6332 29.5846 15.8361 29.5846 15.8361C25.9064 19.5081 21.7569 21.749 21.7569 21.749C18.2598 23.8969 13.8784 25.4855 13.8784 25.4855C10.545 26.6859 9.47845 26.304 9.47845 26.304Z" fill="white"/>
<path d="M31.2768 26.5419C32.0829 25.153 27.6966 21.1065 21.4823 17.5039C15.2693 13.9026 9.57218 12.1118 8.76734 13.5033C7.96126 14.8959 12.3488 18.9387 18.5643 22.5413C24.7811 26.1426 30.472 27.9333 31.2768 26.5419ZM9.30183 14.0402C9.18154 13.7575 9.43329 13.6893 9.43329 13.6893C10.5457 13.4785 12.1082 13.9584 12.1082 13.9584C16.3581 14.9257 23.9365 19.6729 23.9365 19.6729C29.7713 23.7554 30.6667 25.5548 30.8006 26.0645C30.8142 26.1168 30.8088 26.1723 30.7854 26.2211C30.7621 26.2699 30.7222 26.3088 30.6729 26.3311C30.0652 26.6101 28.4345 26.1947 28.4345 26.1947C23.412 24.8479 19.3952 22.3813 19.3952 22.3813C15.7864 20.4343 12.2174 17.4394 12.2174 17.4394C9.50521 15.1551 9.30307 14.0415 9.30307 14.0415L9.30059 14.0402H9.30183Z" fill="white"/>
<path d="M19.9913 21.5218C20.8364 21.5218 21.5216 20.8367 21.5216 19.9915C21.5216 19.1463 20.8364 18.4612 19.9913 18.4612C19.1461 18.4612 18.4609 19.1463 18.4609 19.9915C18.4609 20.8367 19.1461 21.5218 19.9913 21.5218Z" fill="white"/>
<path d="M26.2714 15.3548C26.9563 15.3548 27.5115 14.7995 27.5115 14.1146C27.5115 13.4297 26.9563 12.8745 26.2714 12.8745C25.5865 12.8745 25.0312 13.4297 25.0312 14.1146C25.0312 14.7995 25.5865 15.3548 26.2714 15.3548Z" fill="white"/>
<path d="M11.7011 18.4773C12.386 18.4773 12.9412 17.9221 12.9412 17.2372C12.9412 16.5523 12.386 15.9971 11.7011 15.9971C11.0162 15.9971 10.4609 16.5523 10.4609 17.2372C10.4609 17.9221 11.0162 18.4773 11.7011 18.4773Z" fill="white"/>
<path d="M18.1854 29.74C18.8703 29.74 19.4256 29.1848 19.4256 28.4999C19.4256 27.815 18.8703 27.2598 18.1854 27.2598C17.5005 27.2598 16.9453 27.815 16.9453 28.4999C16.9453 29.1848 17.5005 29.74 18.1854 29.74Z" fill="white"/>
</svg>
